X:1
T: Juanita
C:Dan Hughue MacEachern
R:Jig
Q:180
K:C
M:6/8
L:1/16
|:g2|f2e2d2 d2c2B2|A2F2D2 D4g2|f2e2d2 d2c2d2|e2c2A2 A4g2|
f2e2d2 d2c2B2|A2F2D2 D2F2A2|c2B2A2 g2f2e2|d6d4:|
|:fg|a4b2 a2f2d2|a2f2d2 d2f2g2|a2f2d2 d2c2d2|e2c2A2 A2f2g2|
a4b2 a2f2d2|a2f2d2 f2e2d2|c2B2A2 g2f2e2|d6d4:|
